packages/icons/src/SVG/commentary-solid.svg

<svg width="12" height="12" viewBox="0 0 12 12" >
<path fill-rule="evenodd" clip-rule="evenodd" d="M2 0C0.89543 0 0 0.895431 0 2V7C0 8.10457 0.895431 9 2 9V12L5.4433 9H10C11.1046 9 12 8.10457 12 7V2C12 0.895431 11.1046 0 10 0H2ZM3 2H9V3H3V2ZM3 4H9V5H3V4ZM3 6H7V7H3V6Z" />
</svg>

<!-- Generated by IcoMoon.io -->
<svg version="1.1" xmlns="http://www.w3.org/2000/svg" width="12" height="12" viewBox="0 0 12 12">
<title>commentary-solid</title>
<path d="M2 0c-1.105 0-2 0.895-2 2v5c0 1.105 0.895 2 2 2v3l3.443-3h4.557c1.105 0 2-0.895 2-2v-5c0-1.105-0.895-2-2-2h-8zM3 2h6v1h-6v-1zM3 4h6v1h-6v-1zM3 6h4v1h-4v-1z"></path>
</svg>
